X: 382
T:La Sansonette
Z:Bill Reeder
M:4/4
L:1/8
K:Bm
f2 f2 e3 d| cdef B4|Bcde f2 ef |a2b2 f4|!
f2f2 e3d|cdef B4|Bcde f2 ed|cdef B4:||!
f2df gdfg|f2df gdfg|c3f gcfg|c3f gcfg|!
f2df gdfg|f2df gdfg|c3g fedc|Bcdc B4:||

